!!!!SEGMENT: pl-wnifc--13846--119_anonim--piesni-polskie-i-ruskie-ludu-galicyjskiego-119-szczoz-ja-budu-bidny-dijaw.krn
!!!kernsource:
!!!cenid: 18xx:3341
!!!COM: Anonim
!!!COM-rismID: pe30004985
!!!CDT:
!!!CNT:
!!!GTL: Pieśni polskie i ruskie ludu galicyjskiego
!!!OTL: 119. Szczoż ja budu bidny dijaw
!!!PDT: 1833
!!!AGN:
!!!SMS-siglum: PL-Wnifc
!!!SMS-shelfmark: 13846
!!!SMS-shelfwork: 119 G
!!!NIFC-rismSourceID: 1001039618
!!!NIFC-islandoraID:
!!!URL-pdf-islandora:
!!!URL-scan:
!!!ONB-nifc:
!!!AIN: 1 piano 1 vox
!!!key: b
!!!OMD: Andantino.
**kern	**kern	**kern	**text
*part2	*part2	*part1	*part1
*staff3	*staff2	*staff1	*staff1
*I"FORTEPIAN.	*I"FORTEPIAN.	*I"GŁOS.	*
*Ipiano	*Ipiano	*Ivox	*
*ICklav	*ICklav	*ICvox	*
*IGacmp	*IGacmp	*IGsolo	*
*>[A,B,B]	*>[A,B,B]	*>[A,B,B]	*>[A,B,B]
*>A	*>A	*>A	*>A
*clefF4	*clefG2	*clefG2	*
*k[f#c#]	*k[f#c#]	*k[f#c#]	*
*b:	*b:	*b:	*
*M2/4	*M2/4	*M2/4	*
=1-	=1-	=1-	=1-
!	!	!LO:TX:a:t=E.189.	!
4B\	8dd\L 8b\	8dd\	Szczoż
.	8ff#\ 8dd\	8ff#\	ja
4BB/	8ff#\ 8dd\	8ff#\	bu-
.	8ff#\J 8dd\	8ff#\	-du
=2	=2	=2	=2
4F#\	(16ee\LL 16cc#\	(16ee\LL	bid-
.	16ff#\ 16dd\	16ff#\JJ	.
.	16gg\ 16ee\)	16gg\)	.
.	16ff#\JJ 16dd\|	16ff#\	-ny
4F#\	(8ee\L 8cc#\	(8ee\	di-
.	16dd\L 16b\)	16dd\)	.
.	16cc#/JJ 16a#X/	16cc#\	-jaw,
!!LO:LB:g=original
=3	=3	=3	=3
4BB/	8dd\L 8b\	8dd\	szo
.	8ff#\ 8dd\	8ff#\	ja
4BB/	8ff#\ 8dd\	8ff#\	ży-
.	8ff#\J 8dd\	8ff#\	-ta
=4	=4	=4	=4
4F#/ 4FF#/	(16ee\LL 16cc#\	(16ee\LL	ne
.	16ff#\ 16dd\	16ff#\	.
.	16gg\ 16ee\)	16gg\JJ)	.
.	16ff#\JJ 16dd\|	16ff#\	po-
4F#/ 4FF#/	(8ee\L 8cc#\	(8ee\L	-si-
.	16dd\L 16b\)	16dd\Jk)	.
.	16cc#/JJ 16a#X/|	16cc#\|	-jaw,
!!LO:LB:g=original
=5!|:	=5!|:	=5!|:	=5!|:
*>B	*>B	*>B	*>B
!LO:TX:t=P:problem=mixed beam	!LO:N:vis=8	!LO:N:vis=8	!
16BBB/|LL	(8.ff#\L 8.dd\	8.ff#\L	hre-
16BB/|	.	.	.
16B\JJ	.	.	.
16r	32ee\LL 32cc#\)	32ee\LL	-czka
.	32dd\JJJ 32b\|	32dd\|JJJ	.
!LO:TX:t=P:problem=mixed beam	!	!	!
16FF#/|<LL	(8.ee\L 8.cc#\	(8.ee\L	my
16F#\|<	.	.	.
16f#\|<JJ	.	.	.
16r	32dd\LL 32b\)	32dd\Jkk)	.
.	32cc#/JJJ 32a#X/|	32cc#\|	sia
=6	=6	=6	=6
8BB\L	(16dd/LL 16f#/	(16dd\LL	ne
.	16cc#/JJ 16e/)	16cc#\JJ)	.
8F#\	(16b/LL 16d/	(16b\LL	wro-
.	16a#X/JJ 16c#/)	16a#X\JJ)	.
8BB\J	16b/LL 16d/	(16b\LL	-dy-
.	16cc#/ 16a#X/	16cc#\	.
8r	16dd\ 16b\	16dd\JJ)	.
.	16ee\JJ 16cc#\	16ee\	-ła,
!!LO:LB:g=original
=7	=7	=7	=7
!LO:TX:t=P:problem=mixed beam	!	!	!
16BB\|LL	(8.ff#\L 8.dd\	(8.ff#\L	do-
16F#\|	.	.	.
16FF#/|JJ	.	.	.
16r	32ee\LL 32cc#\^<)	32ee\Jkk)	.
.	32dd\JJJ 32b\|	32dd\|	-łeż
!LO:TX:t=P:problem=mixed beam	!	!	!
16AA#X/|>LL	(8.ee\L 8.cc#\^<	(8.ee\L	mo-
16F#\|>	.	.	.
16FF#/|>JJ	.	.	.
16r	32dd\LL 32b\)	32dd\Jkk)	.
.	32cc#/JJJ 32a#X/|	32cc#\|	-ja
=8	=8	=8	=8
*^	*	*	*
4ryy	8F#/L 8BB/	(16dd/LL 16f#/	(16dd\LL	ne-
.	.	16cc#/JJ 16e/)	16cc#\JJ)	.
.	8F#/J 8FF#/	(16b/LL 16d/	(16b\LL	-szcza-
.	.	16a#X/JJ 16c#/)	16a#X\JJ)	.
4BB\	4F#/ 4BB/	8b/L 8d/	8b\	-sły-
.	.	8b/J 8d/	8b\	-wa.
*v	*v	*	*	*
=:|!	=:|!	=:|!	=:|!
*-	*-	*-	*-
!!!system-decoration: s1{(s2,s3)}
!!!RDF**kern: > = above
!!!RDF**kern: < = below
!!!RDF**kern: | = vertical stroke
!!!ENC: Marta Lawrence
!!!END: 2021-11-11
!!!YEC: Copyright 2022 Narodowy Instytut Fryderyka Chopina (https://polishscores.org)
!!!YEM: Licence CC BY 4.0 (https://creativecommons.org/licenses/by/4.0)
